src/images/arrows.svg

<svg width="121" height="125" viewBox="0 0 121 125" fill="none" xmlns="http://www.w3.org/2000/svg">
<g clip-path="url(#clip0_10_126)">
<path d="M51.65 12.6401L9.97998 52.2301L1.47998 1.56006L51.65 12.6401Z" fill="#FAD645"/>
<path d="M84.73 47.45L43.05 87.05L34.56 36.38L84.73 47.45Z" fill="#FAD645"/>
<path d="M117.81 82.2701L76.13 121.87L67.64 71.1901L117.81 82.2701Z" fill="#FAD645"/>
<path d="M9.16 54.66L0 0L54.12 11.95L9.16 54.66ZM2.96 3.12L10.78 49.8L49.18 13.32L2.96 3.12Z" fill="#0A002D"/>
<path d="M42.24 89.4799L33.08 34.8199L87.2 46.7699L42.24 89.4899V89.4799ZM36.04 37.9399L43.86 84.6199L82.25 48.1499L36.03 37.9499L36.04 37.9399Z" fill="#0A002D"/>
<path d="M75.32 124.3L66.16 69.64L120.28 81.59L75.32 124.3ZM69.12 72.76L76.94 119.44L115.33 82.97L69.11 72.77L69.12 72.76Z" fill="#0A002D"/>
</g>
<defs>
<clipPath id="clip0_10_126">
<rect width="120.28" height="124.3" fill="white"/>
</clipPath>
</defs>
</svg>

<svg width="121" height="125" fill="none" xmlns="http://www.w3.org/2000/svg"><g clip-path="url(#a)"><path d="M51.65 12.64 9.98 52.23 1.48 1.56l50.17 11.08zM84.73 47.45l-41.68 39.6-8.49-50.67 50.17 11.07zM117.81 82.27l-41.68 39.6-8.49-50.68 50.17 11.08z" fill="#FAD645"/><path d="M9.16 54.66 0 0l54.12 11.95L9.16 54.66zM2.96 3.12l7.82 46.68 38.4-36.48L2.96 3.12zM42.24 89.48l-9.16-54.66L87.2 46.77 42.24 89.49v-.01zm-6.2-51.54 7.82 46.68 38.39-36.47-46.22-10.2.01-.01zM75.32 124.3l-9.16-54.66 54.12 11.95-44.96 42.71zm-6.2-51.54 7.82 46.68 38.39-36.47-46.22-10.2.01-.01z" fill="#0A002D"/></g><defs><clipPath id="a"><path fill="#fff" d="M0 0h120.28v124.3H0z"/></clipPath></defs></svg>
